X: 24818
T: Maggie Pickins
R: strathspey
M: 4/4
K: Amajor
|:z>B|A>FE>F A>Bc>e|e>cB>A B>AF>A|A>FE>F A>Bc<e|e>c (3BcB A2:|
|:A>e|(3fae f>e a2 g>f|e>c (3cBA B>A F2|1 (3fae f>a a2 g>f|
e>c (3cBA B2:|2 A>FE>F A>B c2|e>c (3cBA B2 A||

